icons/ppe_apron_fill.svg

<svg width="48" height="48" viewBox="0 0 48 48" fill="none" xmlns="http://www.w3.org/2000/svg">
<path fill-rule="evenodd" clip-rule="evenodd" d="M20.3418 6.62091L20.0499 5.96338L19.3337 6.03113C15.7797 6.36732 13 9.35833 13 12.9998V24.9998C13 26.6566 14.3431 27.9998 16 27.9998H17V39.7206L20.5215 40.8944C22.7794 41.6471 25.2206 41.6471 27.4785 40.8944L31 39.7206V27.9998H32C33.6569 27.9998 35 26.6566 35 24.9998V12.9998C35 9.35833 32.2203 6.36732 28.6663 6.03113L27.9501 5.96338L27.6582 6.62091C27.0351 8.02429 25.6304 8.99983 24 8.99983C22.3696 8.99983 20.9649 8.02429 20.3418 6.62091ZM19 22.9998V24.9998H29V22.9998H19Z" fill="black"/>
</svg>

<svg
  xmlns="http://www.w3.org/2000/svg"
  width="24"
  height="24"
  viewBox="0 0 24 24"
  fill="none"
  stroke="currentColor"
  stroke-width="2"
  stroke-linecap="round"
  stroke-linejoin="round"
>
  <path
    fill-rule="evenodd"
    d="m20.342 6.62-.292-.657-.716.068A7 7 0 0 0 13 13v12a3 3 0 0 0 3 3h1v11.72l3.521 1.174a11 11 0 0 0 6.958 0L31 39.721V28h1a3 3 0 0 0 3-3V13a7 7 0 0 0-6.334-6.969l-.716-.068-.292.658a4.001 4.001 0 0 1-7.316 0M19 23v2h10v-2z"
    clip-rule="evenodd"
  />
</svg>
